assets/azurecompliance/original.svg

<svg height="18" viewBox="0 0 18 18" width="18" xmlns="http://www.w3.org/2000/svg" xmlns:xlink="http://www.w3.org/1999/xlink"><linearGradient id="a" gradientUnits="userSpaceOnUse" x1="9" x2="9" y1="17.5" y2=".5"><stop offset="0" stop-color="#0078d4"/><stop offset=".82" stop-color="#5ea0ef"/></linearGradient><path d="m10 .63h-7.27a.57.57 0 0 0 -.57.57v15.6a.57.57 0 0 0 .57.57h12.54a.57.57 0 0 0 .57-.57v-10.32a.58.58 0 0 0 -.57-.58h-4.16a.56.56 0 0 1 -.57-.57v-4.13a.57.57 0 0 0 -.54-.57" fill="#fff"/><path d="m9.7 1.36v3.92a1.44 1.44 0 0 0 1.44 1.43h3.95v9.93h-12.18v-15.28zm.3-.86h-7.36a.58.58 0 0 0 -.58.58v15.84a.58.58 0 0 0 .58.58h12.72a.58.58 0 0 0 .58-.58v-10.48a.58.58 0 0 0 -.58-.58h-4.22a.58.58 0 0 1 -.58-.58v-4.2a.58.58 0 0 0 -.56-.58" fill="url(#a)"/><path d="m15.72 6-5.36-5.37v4.37a1 1 0 0 0 1 1z" fill="#0078d4"/><path d="m10.41 11.18a2.21 2.21 0 0 1 -2.93 0l-.18 3.63a.29.29 0 0 0 .5.22l1.12-1.15 1.14 1.12a.29.29 0 0 0 .49-.22z" fill="#b31b1b"/><ellipse cx="8.98" cy="9.31" fill="#e62323" rx="2.61" ry="2.62"/><ellipse cx="8.98" cy="9.31" fill="#ffd400" rx="1.98" ry="1.99"/></svg>

<svg xmlns="http://www.w3.org/2000/svg" id="accb8b11-ff75-4ed7-86d0-74f3af9e9fdb" width="18" height="18" viewBox="0 0 18 18"><defs><linearGradient id="ec34cf3c-0705-4609-8eda-9dd9d51977d2" x1="9" x2="9" y1="17.5" y2=".5" gradientUnits="userSpaceOnUse"><stop offset="0" stop-color="#0078d4"/><stop offset=".82" stop-color="#5ea0ef"/></linearGradient></defs><path fill="#fff" d="M10 .63H2.73a.57.57 0 0 0-.57.57v15.6a.57.57 0 0 0 .57.57h12.54a.57.57 0 0 0 .57-.57V6.48a.58.58 0 0 0-.57-.58h-4.16a.56.56 0 0 1-.57-.57V1.2A.57.57 0 0 0 10 .63"/><path fill="url(#ec34cf3c-0705-4609-8eda-9dd9d51977d2)" d="M9.7 1.36v3.92a1.44 1.44 0 0 0 1.44 1.43h3.95v9.93H2.91V1.36zM10 .5H2.64a.58.58 0 0 0-.58.58v15.84a.58.58 0 0 0 .58.58h12.72a.58.58 0 0 0 .58-.58V6.44a.58.58 0 0 0-.58-.58h-4.22a.58.58 0 0 1-.58-.58v-4.2A.58.58 0 0 0 10 .5"/><path fill="#0078d4" d="M15.72 6 10.36.63V5a1 1 0 0 0 1 1Z"/><path id="a3a9e1d3-9e08-4e6c-b1f3-95c11e84f06a" fill="#b31b1b" d="M10.41 11.18a2.21 2.21 0 0 1-2.93 0l-.18 3.63a.29.29 0 0 0 .5.22l1.12-1.15L10.06 15a.29.29 0 0 0 .49-.22Z"/><ellipse id="a09a1db5-9087-43a3-902a-422185a7e3a0" cx="8.98" cy="9.31" fill="#e62323" rx="2.61" ry="2.62"/><ellipse id="ac490612-dbc7-498b-b2fc-d820fcb1a7b0" cx="8.98" cy="9.31" fill="#ffd400" rx="1.98" ry="1.99"/></svg>
